!!!COM: Music21
!!!OTL: polka_Mountain-Pathway--The
!!!OMV: polka_Mountain-Pathway--The
**kern
*clefG2
*k[f#]
*G:
*M2/4
=1
8bL
32bLL
32a
32g
32bJJJ
=
16ddLL
16cc
16cc
16ddJJ
4ryy
=
16eeLL
16dd
16dd
16ff#JJ
4ryy
=
32aaLLL
32gg
32ff#
32aaJ
16gg
16ff#JJ
4ryy
=
8eeL
16.ggL
32ff#JJk
4ryy
=
16eeLL
32ddL
32cc#XJJ
8ddJ
4ryy
!!linebreak:original
=
32ddLLL
32ff#
32aa
32ff#
32dd
32ff#
32aa
32ff#JJJ
4ryy
=
32ddLLL
32ff#
32aa
32ff#J
16gg
16ddJJ
4ryy
=||
*M2/4
8bL
32bLL
32a
32g
32bJJJ
=
16ddLL
16cc
16cc
16ddJJ
4ryy
=
16eeLL
16dd
16dd
16ff#JJ
4ryy
=
32aaLLL
32gg
32ff#
32aaJ
16gg
16ff#JJ
4ryy
!!linebreak:original
=
8eeL
16.ggL
32ff#JJk
4ryy
=
16eeLL
32ddL
32cc#XJJ
8ddJ
4ryy
=
32ddLLL
32ff#
32aa
32ff#
32dd
32ff#
32aa
32ff#JJJ
4ryy
=
32ddLLL
32ff#
32aa
32ff#J
16gg
16ff#JJ
4ryy
=||
16ggLL
16dd
16.gg
32aaJJk
4ryy
=
16bbLL
16gg
16gg
32ggL
32ff#JJJ
4ryy
!!linebreak:original
=
16eeLL
16cc
16ee
32ff#L
32ggJJJ
4ryy
=
32aaLLL
32gg
32ff#
32aaJ
16gg
32ggL
32eeJJJ
4ryy
=
32ddLLL
32ee
32dd
32bJ
16g
32bL
32ccJJJ
4ryy
=
32ddLLL
32ee
32dd
32bJ
16g
32aL
32bJJJ
4ryy
=
16ccLL
16a
32aL
32f#
32d
32f#JJJ
4ryy
=
16aLL
16gJ
8gJ
4ryy
!!linebreak:original
=||
16ggLL
16dd
16.gg
32aaJJk
4ryy
=
16bbLL
16gg
16gg
32ggL
32ff#JJJ
4ryy
=
16eeLL
16cc
16ee
32ff#L
32ggJJJ
4ryy
=
32aaLLL
32gg
32ff#
32aaJ
16gg
32ggL
32eeJJJ
4ryy
=
32ddLLL
32ee
32dd
32bJ
16g
32bL
32ccJJJ
4ryy
=
32ddLLL
32ee
32dd
32bJ
16g
32aL
32bJJJ
4ryy
!!linebreak:original
=
16ccLL
16a
32aL
32f#
32d
32f#JJJ
4ryy
=
16aLL
16g
16g
16aJJ
4ryy
=||
*-
